X: 23933
T: Lochaber Badger, The
R: reel
M: 4/4
K: Eminor
B2 AG AG E2|E2 DE GDEG|B2 AG AG E2|EDGD E4|
B2 AG AG E2|E2 DE GDEG|B2 AG AG E2|EDGD E3||
E2 DE GE A2|A2 AG Bd B2|B2 AG AG E2|EDGD E3|
E2 DE GE A2|A2 AG Bd B2|B2 AG AG E2|EDGD E3||

